img/iconsfont/favorite.svg

<svg width="24" height="21" viewBox="0 0 24 21" fill="none" xmlns="http://www.w3.org/2000/svg">
<path fill-rule="evenodd" clip-rule="evenodd" d="M11.9996 18.0226C7.35982 15.3882 4.76416 12.7626 3.50744 10.4739C2.22425 8.13698 2.3302 6.15452 3.05171 4.73901C4.52988 1.83903 8.73571 0.911189 11.2936 4.14628L11.9995 5.03912L12.7055 4.14632C15.2638 0.911117 19.4699 1.83909 20.948 4.73901C21.6695 6.1545 21.7754 8.13695 20.4921 10.4738C19.2353 12.7626 16.6395 15.3882 11.9996 18.0226ZM11.9996 2.24511C8.5199 -1.14383 3.33722 0.215237 1.44802 3.92158C0.419533 5.93934 0.400427 8.55527 1.92965 11.3402C3.44655 14.1028 6.47805 17.0306 11.5642 19.8418L11.9996 20.0825L12.4349 19.8419C17.5213 17.0307 20.5529 14.1028 22.0699 11.3403C23.5992 8.55529 23.5802 5.93935 22.5517 3.92158C20.6625 0.215172 15.4796 -1.14379 11.9996 2.24511Z" fill="#262F56"/>
</svg>

<svg width="24" height="21" fill="none" xmlns="http://www.w3.org/2000/svg"><path fill-rule="evenodd" clip-rule="evenodd" d="M12 18.023c-4.64-2.635-7.236-5.26-8.493-7.55C2.224 8.138 2.33 6.156 3.052 4.74c1.478-2.9 5.684-3.828 8.242-.593l.705.893.707-.893c2.558-3.235 6.764-2.307 8.242.593.721 1.415.827 3.398-.456 5.735-1.257 2.289-3.852 4.914-8.492 7.549zm0-15.778C8.52-1.144 3.337.215 1.448 3.922.42 5.939.4 8.555 1.93 11.34c1.517 2.763 4.548 5.69 9.634 8.502l.436.24.435-.24c5.086-2.811 8.118-5.74 9.635-8.502 1.53-2.785 1.51-5.4.482-7.418C20.662.215 15.48-1.144 12 2.245z" fill="#262F56"/></svg>
